!!!!SEGMENT: T808_Bri-w24p32m8-1h14m1-2.krn
!!!COM: Britten, (Edward) Benjamin
!!!OTL: single movement work
!!!AGN: Instrumental
!!!AGN-sub: Chamber
!!!CNT: English
!!!ODT: 1943
!!!OPR: Prelude and Fugue for Eighteen String Instruments, op. 29
!!!filename: T808_Bri-w24p32m8-1h14m1-2.krn
**kern	**dynam	**kern	**dynam	**kern	**dynam	**kern	**dynam	**kern	**dynam
*grp:A	*	*grp:A	*	*grp:B	*	*grp:B	*	*grp:B	*
*part5	*	*part4	*	*part3	*	*part2	*	*part1	*
*staff5	*	*staff4	*	*staff3	*	*staff2	*	*staff1	*
*ICstr	*	*ICstr	*	*ICstr	*	*ICstr	*	*ICstr	*
*Icbass	*	*Icello	*	*Iviola	*	*Ivioln	*	*Ivioln	*
*I"Double Bass	*	*I"Violoncello	*	*I"Viola	*	*I"Violin II	*	*I"Violin I	*
*I'Db.	*	*I'Vc.	*	*I'Vla.	*	*I'Vln. II	*	*I'Vln. I	*
*clefF4	*	*clefF4	*	*clefC3	*	*clefG2	*	*clefG2	*
*ITrd7c12	*	*	*	*	*	*	*	*	*
*k[f#c#]	*	*k[f#c#]	*	*k[f#c#]	*	*k[f#c#]	*	*k[f#c#]	*
*D:	*	*D:	*	*D:	*	*D:	*	*D:	*
*M4/4	*	*M4/4	*	*M4/4	*	*M4/4	*	*M4/4	*
=1	=1	=1	=1	=1	=1	=1	=1	=1	=1
!	!	!	!	!	!	!	!	!LO:TX:a:B:t=Grave come prima	!
1r	.	1r	.	2r	.	2r	.	2r	.
!	!	!	!	!	!LO:DY:t=%s espr. sempre sul G	!	!LO:DY:t=%s espr. sempre sul G	!	!LO:DY:t=%s espr. sempre sul G
.	.	.	.	(4Av	ff	(4Av	ff	(4Av	ff
.	.	.	.	4fn)	.	4fn)	.	4fn)	.
=2	=2	=2	=2	=2	=2	=2	=2	=2	=2
4r	.	4r	.	2.c#Z	.	2.c#Z	.	2.c#Z	.
!LO:TX:a:t=pizz.	!LO:DY:t=%s pesante	!LO:TX:a:t=pizz.	!LO:DY:t=%s pesante	!	!	!	!	!	!
4CCCn 4CCn	fff	4CCn	fff	.	.	.	.	.	.
4FFFn	.	4FFn	.	.	.	.	.	.	.
8GGG#X^L	.	8GG#X^L	.	(4cn	<	(4cn	<	(4cn	<
8AAA^J	.	8AA^J	.	.	.	.	.	.	.
=3	=3	=3	=3	=3	=3	=3	=3	=3	=3
8r	.	8r	.	4a)	[	4a)	[	4a)	[
4CCCn 4CCn	.	4CCn	.	.	.	.	.	.	.
.	.	.	.	4fn~	.	4fn~	.	4fn~	.
4FFFn	.	4FFn	.	.	.	.	.	.	.
.	.	.	.	4c#X~	.	4c#X~	.	4c#X~	.
8GGG#X^	.	8GG#X^	.	.	.	.	.	.	.
4AAAZ^	.	4AAZ^	.	(8A#XL	>	(8A#XL	>	(8A#XL	>
.	.	.	.	[8BJ	]]	[8BJ	]]	[8BJ	]]
=4	=4	=4	=4	=4	=4	=4	=4	=4	=4
4r	.	4r	.	2B])	.	2B])	.	2B])	.
4DDD 4DD	.	4DD	.	.	.	.	.	.	.
4GGG	.	4GG	.	(4Gv	.	(4Gv	.	(4Gv	.
8AAA#X^L	.	8AA#X^L	.	[4fn	.	[4fn	.	[4fn	.
8BBB^J	.	8BB^J	.	.	.	.	.	.	.
=5	=5	=5	=5	=5	=5	=5	=5	=5	=5
8r	.	8r	.	4f])	.	4f])	.	4f])	.
4DDD 4DD	.	4DD	.	.	.	.	.	.	.
.	.	.	.	4G~	.	4G~	.	4G~	.
4GGG	.	4GG	.	.	.	.	.	.	.
.	.	.	.	4fn~	.	4fn~	.	4fn~	.
4AAA#X	.	4AA#X	.	.	.	.	.	.	.
.	.	.	.	4d~	.	4d~	.	4d~	.
8BBB^	.	8BB^	.	.	.	.	.	.	.
!!linebreak:original
=6	=6	=6	=6	=6	=6	=6	=6	=6	=6
!	!	!	!	!LO:TX:a:i:t=sul D	!	!LO:TX:a:i:t=sul D	!	!LO:TX:a:i:t=sul D	!
4CCn	.	4Cn	.	(8e-XL	.	(<8e-XL	.	(<8e-XL	.
.	.	.	.	8g	.	8g	.	8g	.
4r	.	4r	.	8dd-X	.	8dd-X	.	8dd-X	.
.	.	.	.	[8ccnJ	.	[>8ccnJ	.	[>8ccnJ	.
8EE-XL	<	8E-XL	<	4cc])	.	4cc])	.	4cc])	.
8AA-X	.	8A-X	.	.	.	.	.	.	.
8BBn	.	8Bn	.	4cc~	.	4cc~	.	4cc~	.
8CnJ	[[	8cnJ	[[	.	.	.	.	.	.
*	*	*	*	*clefG2	*	*	*	*	*
=7	=7	=7	=7	=7	=7	=7	=7	=7	=7
8r	.	8r	.	4ddn~	.	4ddn~	.	4ddn~	.
4D^	.	4d^	.	.	.	.	.	.	.
.	.	.	.	4ee-X~	.	4ee-X~	.	4ee-X~	.
4E-X^	.	4e-X^	.	.	.	.	.	.	.
.	.	.	.	(4ccn	.	(4ccn	.	(4ccn	.
4Cn	.	4cn	.	.	.	.	.	.	.
.	.	.	.	4ggn)	.	4ggn)	.	4ggn)	.
8Gn^	.	8gn^	.	.	.	.	.	.	.
=8	=8	=8	=8	=8	=8	=8	=8	=8	=8
8G#X	sf	8g#X	sf	8aa#XL	sf>	(8aa#XL	sf	(8aa#XL	sf
8r	.	8r	.	[8bbJ	.	[8bbJ	.	[8bbJ	.
!LO:TX:a:t=arco	!	!LO:TX:a:t=arco	!	!	!	!	!	!	!
4r	.	4r	.	8bb]	]]	2.bb_	.	2.bb_	.
.	.	.	.	8r	.	.	.	.	.
*	*	*	*	*clefC3	*	*	*	*	*
!	!LO:DY:t=%s sost.	!	!LO:DY:t=%s sost.	!	!LO:DY:t=%s sost.	!	!LO:HP:i:t=dim.	!	!LO:HP:i:t=dim.
4BBB~	mf	4BB~	mf	4B~	mf	.	>	.	>
4EEn~	.	4E~	.	4e~	.	.	.	.	.
!!LO:REH:t=14
=9	=9	=9	=9	=9	=9	=9	=9	=9	=9
*k[f#c#g#d#]	*	*k[f#c#g#d#]	*	*k[f#c#g#d#]	*	*k[f#c#g#d#]	*	*k[f#c#g#d#]	*
*E:	*	*E:	*	*E:	*	*E:	*	*E:	*
(8FF##X^	.	(8F##X^	.	(8f##X^	.	2bb])	.	2bb])	.
[4.GG#	.	[4.G#	.	[4.g#	.	.	.	.	.
!	!	!	!	!	!	!	!LO:DY:t=%s dolce	!	!LO:DY:t=%s dolce
8GG#])	.	8G#])	.	8g#])	.	(4gg#	mf	(4gg#	mf
4BBB	.	4BB	.	4B	.	.	.	.	.
.	.	.	.	.	.	4eeeor) 4eeeeyy	.	4eeeor) 4eeeeyy	.
[8EE	.	[8E	.	[8e	.	.	.	.	.
=10	=10	=10	=10	=10	=10	=10	=10	=10	=10
*	*	*	*	*	*	*^	*	*	*
!	!	!	!	!	!	!LO:TX:a:t=div.	!	!	!	!
8EE]	.	8E]	.	8e]	.	2.cccn	4ccc	.	2.cccn	.
!	!LO:HP:i:t=dim.	!	!LO:HP:i:t=dim.	!	!LO:HP:i:t=dim.	!	!	!	!	!
(8FF##X~	>	(8F##X~	>	(8f##X~	>	.	.	.	.	.
4GG#)	.	4G#)	.	4g#)	.	.	4rg	.	.	.
4BBB	.	4BB	.	4B	.	.	2rg	.	.	.
!	!	!	!	!	!	!	!	!LO:HP:i:t=dim.	!	!
4EE	.	4E	.	4e	.	[4bb	.	>	[4bb	.
*	*	*	*	*	*	*v	*v	*	*	*
=	=	=	=	=	=	=	=	=	=
*-	*-	*-	*-	*-	*-	*-	*-	*-	*-
!!!system-decoration: [(s1,s2,s3,s4,s5)]
!!!RDF**kern: Z = editorial accidental, parenthesis
!!!RDF**kern: > = above
!!!RDF**kern: < = below
!!!EED: Gabriella Vici
!!!EEV: 2021/10/21
!!!EED2: Jason Lee
!!!Suter_Work_ID: Bri-24
!!!Suter_Example_Number: 808
!!!Suter_Example_ID: Bri-24/32/8-1[14]1-2
!!!Premiere_Location: London,England
!!!Other_Tsigs: none
!!!Full_Unit_Duration: 8:37
!!!First_Publication_Year: 1951
!!!First_Public_Performance_Year: 1943
!!!Example_Total_Measures: 10
!!!Example_Timestamp_Duration: 45
!!!Example_Start_Tsig_Type: simple quadruple
!!!Example_Start_Tsig_Mean_Beat_Rate: 53
!!!Example_Start_Tsig_Beat_Rate: 53
!!!Example_Start_Tsig_Beat: quarter
!!!Example_Start_Tsig: 4/4
!!!Example_Start_Timestamp: 6:23
!!!Example_Start_Tempo_Expression: Grave come prima
!!!Example_Start_Notated_Beat_Rate: {53}
!!!Example_Start_Notated_Beat: {quarter}
!!!Example_Start_Measure: 166
!!!Example_Metadata_Validated: Y
!!!Example_End_Timestamp: 7:08
!!!Example_End_Measure: 175
!!!Example_Dataset: T
!!!Editorial_Comments: No notated tempo. Example Start Notated Beat and Example Start Notated Beat Rate {quarter=53} calculated from recording (https://ubc-nml3-naxosmusiclibrary-com.eu1.proxy.openathens.net/catalogue/item.asp?cid=CKD478); tempo for audio synthesis {quarter=52} was calculated using a Digital Audio Workstation (DAW).
!!!Death_Place: Aldeburgh,England
!!!Death_Date: 4-Dec-1976
!!!Changing_Tsig: no
!!!Birth_Place: Lowestoft,England
!!!Birth_Date: 22-Nov-1913
!!!Audio_Example_Quarter_Note_Tempo:
!!!Audio_Example_Duration:
!!!EEV2: 2022/03/09
